upholstery/bottom_page1.svg

<?xml version="1.0" encoding="UTF-8" standalone="no"?>
<svg
   version="1.1"
   width="300.00mm"
   height="600.00mm"
   viewBox="0 0 300.00 600.00"
   id="svg3167"
   sodipodi:docname="bottom_page1.svg"
   inkscape:version="1.1.1 (c3084ef, 2021-09-22)"
   xmlns:inkscape="http://www.inkscape.org/namespaces/inkscape"
   xmlns:sodipodi="http://sodipodi.sourceforge.net/DTD/sodipodi-0.dtd"
   xmlns="http://www.w3.org/2000/svg"
   xmlns:svg="http://www.w3.org/2000/svg">
  <defs
     id="defs3171" />
  <sodipodi:namedview
     id="namedview3169"
     pagecolor="#ffffff"
     bordercolor="#666666"
     borderopacity="1.0"
     inkscape:pageshadow="2"
     inkscape:pageopacity="0.0"
     inkscape:pagecheckerboard="0"
     inkscape:document-units="mm"
     showgrid="false"
     inkscape:zoom="0.35057292"
     inkscape:cx="566.21602"
     inkscape:cy="1133.8583"
     inkscape:window-width="1296"
     inkscape:window-height="975"
     inkscape:window-x="0"
     inkscape:window-y="25"
     inkscape:window-maximized="0"
     inkscape:current-layer="svg3167" />
  <style
     type="text/css"
     id="style3085">
    path {
        fill: none;
        stroke-linecap: butt;
        stroke-linejoin: bevel;
        stroke-dasharray: none;
    }
    path.outer {
        stroke: #000000;
        stroke-dasharray: none;
        stroke-dashoffset: 0;
        stroke-width: 0.3;
        stroke-opacity: 1.0;
    }
    path.convex {
        stroke: #000000;
        stroke-dasharray: 0.50,1.00;
        stroke-dashoffset:0;
        stroke-width:0.2;
        stroke-opacity: 1.0
    }
    path.concave {
        stroke: #000000;
        stroke-dasharray: 1.00,0.50,0.20,0.50;
        stroke-dashoffset: 0;
        stroke-width: 0.2;
        stroke-opacity: 1.0
    }
    path.freestyle {
        stroke: #000000;
        stroke-dasharray: none;
        stroke-dashoffset: 0;
        stroke-width: 0.2;
        stroke-opacity: 1.0
    }
    path.outer_background {
        stroke: #ffffff;
        stroke-opacity: 1.0;
        stroke-width: 0.5
    }
    path.inner_background {
        stroke: #ffffff;
        stroke-opacity: 1.0;
        stroke-width: 0.2
    }
    path.sticker {
        fill: #e5e5e5;
        stroke: none;
        fill-opacity: 1.0;
    }
    path.arrow {
        fill: #000000;
    }
    text {
        font-style: normal;
        fill: #000000;
        fill-opacity: 1.0;
        stroke: none;
    }
    text, tspan {
        text-anchor:middle;
    }
    </style>
  <g
     id="g3165"
     transform="translate(72.495838,6.879167)">
    <text
       transform="translate(113.69518,267.40006)"
       style="font-size:10px"
       id="text3089"><tspan
         id="tspan3087">[2] I 2</tspan></text>
    <path
       class="sticker"
       d="M 17.000039,572.99995 7.000034,572.84286 v -40.70112 l 10.000005,-0.15709 z m -1.5e-5,-363.43002 -4.64417,-0.073 -1.5e-5,-9.14243 4.64417,-0.073 z m 1.5e-5,322.41472 -10.000005,-0.15709 1.5e-5,-26.09449 10.000005,-0.15709 z m 1.5e-5,-26.40867 -10.000005,-0.15709 4.4e-5,-215.37775 10.000006,-0.15708 z m 195.390266,-328.11174 10.00001,0.15709 3e-5,23.28673 -10.00001,0.15712 z m -3e-5,395.53577 L 212.2332,583 h -23.11787 l -0.15708,-9.99999 z M 74.040537,572.99998 73.883449,583 H 49.699743 l -0.157088,-10.00002 z m 5.9e-5,-470.92104 -6.054476,-7.960409 27.600468,-21.684885 6.301542,7.766247 z m 138.349714,-3e-5 9.99999,0.15709 3e-5,75.07115 -10.00001,0.15709 z M 126.2617,573.00001 126.1046,583 h -24.05942 l -0.15708,-10.00002 z m 5e-5,-492.800117 0.15709,-9.999991 h 62.38236 l 0.15709,9.999991 z m 86.12857,209.684107 9.99999,0.15708 -1e-5,210.76137 -9.99999,0.15709 z m -3e-5,236.6417 10.00001,0.15709 v 46.16013 l -10.00001,0.15709 z M 188.95825,573.00001 188.80116,583 H 126.4188 l -0.1571,-9.99999 z m -87.07015,-3e-5 L 101.731,583 H 74.197625 L 74.040537,572.99998 Z M 74.040596,176.68056 64.040591,176.5235 v -74.28747 l 10.000005,-0.15709 z m 27.847534,-96.480667 0.15707,-9.999991 h 24.05944 l 0.15711,9.999991 z m 87.07016,0 6.93952,-7.20191 23.20237,21.664559 -6.70987,7.416368 z m 23.43206,120.865287 4.64419,0.0729 -2e-5,9.14246 -4.64418,0.073 z M 49.542655,572.99998 49.385567,583 h -32.22844 l -0.157088,-10.00005 z m -32.542646,-372.71842 0.157088,-10 32.22844,-3e-5 0.157103,10.00003 z m 32.542631,0 -6.824866,-7.31069 24.271697,-23.38299 7.051125,7.09268 z m 162.84767,300.67798 9.99999,0.15709 v 25.25198 l -10.00001,0.15709 z M 17.000099,289.88406 7.000093,289.72697 l -7.4e-5,-79.99996 10.000005,-0.15708 z m 195.390241,-79.53051 10,0.15709 -3e-5,79.21627 -9.99999,0.15709 z"
       id="path3091" />
    <path
       class="convex"
       d="m 212.39031,500.95954 1e-5,-211.07554 M 126.2617,573.00001 h 62.69655 m 4e-5,-492.800117 h -62.69654 m 86.12857,209.684107 2e-5,-79.53045 m -2e-5,-32.88931 -1e-5,-75.38533 m -138.349714,3e-5 v 74.60162 m -57.040557,396.31939 32.542616,3e-5 M 49.54264,200.28156 H 17.000009 M 101.88813,80.199893 74.040596,102.07894 m -5.9e-5,470.92104 H 101.8881 M 74.040596,176.68056 49.54264,200.28156 m 1.5e-5,372.71842 H 74.040537 M 126.26175,80.199893 h -24.37362 m -3e-5,492.800087 24.3736,3e-5 m 86.12859,-46.47431 2e-5,-25.56616 m -2e-5,72.04047 V 526.5257 m -23.43204,46.47431 h 23.43204 m 6e-5,-371.93483 -3e-5,-23.60094 m 2e-5,32.88931 1e-5,-9.28837 m -4e-5,-98.98627 -23.43202,-21.879017"
       id="path3093" />
    <path
       class="outer"
       d="M 126.1046,583 H 102.04518 L 101.8881,572.99998 101.731,583 H 74.197625 L 74.040537,572.99998 73.883449,583 H 49.699743 L 49.542655,572.99998 49.385567,583 H 17.157127 L 17.000039,572.99995 7.000034,572.84286 v -40.70112 l 10.000005,-0.15709 -10.000005,-0.15709 1.5e-5,-26.09449 10.000005,-0.15709 -10.000005,-0.15709 4.4e-5,-215.37775 10.000006,-0.15708 -10.000006,-0.15709 -7.4e-5,-79.99996 10.000005,-0.15708 -4.64417,-0.073 -1.5e-5,-9.14243 4.64417,-0.073 0.157088,-10 32.22844,-3e-5 0.157103,10.00003 -6.824866,-7.31069 24.271697,-23.38299 7.051125,7.09268 -10.000005,-0.15706 v -74.28747 l 10.000005,-0.15709 -6.054476,-7.960409 27.600468,-21.684885 6.301542,7.766247 0.15707,-9.999991 h 24.05944 l 0.15711,9.999991 0.15709,-9.999991 h 62.38236 l 0.15709,9.999991 6.93952,-7.20191 23.20237,21.664559 -6.70987,7.416368 9.99999,0.15709 3e-5,75.07115 -10.00001,0.15709 10.00001,0.15709 3e-5,23.28673 -10.00001,0.15712 4.64419,0.0729 -2e-5,9.14246 -4.64418,0.073 10,0.15709 -3e-5,79.21627 -9.99999,0.15709 9.99999,0.15708 -1e-5,210.76137 -9.99999,0.15709 9.99999,0.15709 v 25.25198 l -10.00001,0.15709 10.00001,0.15709 v 46.16013 L 212.39029,573.00001 212.2332,583 H 189.11533 L 188.95825,573.00001 188.80116,583 H 126.4188 l -0.1571,-9.99999 z"
       id="path3095" />
    <g
       id="g3103">
      <path
         transform="matrix(1e-6,-10,10,1e-6,17.000039,552.49229)"
         class="arrow"
         d="M 0,0 1,1 0,0.25 -1,1 Z"
         id="path3097" />
      <text
         transform="translate(26.000039,556.49229)"
         style="font-size:10px"
         id="text3101"><tspan
           id="tspan3099">1</tspan></text>
    </g>
    <text
       transform="rotate(-90,283.84616,268.64612)"
       style="font-size:9px"
       id="text3107"><tspan
         id="tspan3105">3:1</tspan></text>
    <g
       id="g3115">
      <path
         transform="matrix(-1.5e-5,-10,10,-1.5e-5,17.000009,204.92574)"
         class="arrow"
         d="M 0,0 1,1 0,0.25 -1,1 Z"
         id="path3109" />
      <text
         transform="translate(26.000009,208.92575)"
         style="font-size:10px"
         id="text3113"><tspan
           id="tspan3111">2</tspan></text>
    </g>
    <text
       transform="rotate(-90.000115,110.54469,94.38086)"
       style="font-size:4.18px"
       id="text3119"><tspan
         id="tspan3117">3:2</tspan></text>
    <text
       transform="rotate(180,100.33714,287.40001)"
       style="font-size:9px"
       id="text3123"><tspan
         id="tspan3121">9.:3</tspan></text>
    <text
       transform="rotate(-38.155711,173.14192,-80.702278)"
       style="font-size:9px"
       id="text3127"><tspan
         id="tspan3125">10:1</tspan></text>
    <text
       transform="rotate(90,37.209374,176.98095)"
       style="font-size:9px"
       id="text3131"><tspan
         id="tspan3129">7:2</tspan></text>
    <text
       transform="rotate(90,-167.78627,381.97657)"
       style="font-size:9px"
       id="text3135"><tspan
         id="tspan3133">16:3</tspan></text>
    <text
       transform="rotate(-90,105.81018,33.569584)"
       style="font-size:9px"
       id="text3139"><tspan
         id="tspan3137">18:2</tspan></text>
    <text
       transform="rotate(43.036945,-12.956494,300.94973)"
       style="font-size:9px"
       id="text3143"><tspan
         id="tspan3141">10:3</tspan></text>
    <text
       transform="rotate(90.000115,3.7586782,209.46762)"
       style="font-size:4.18px"
       id="text3147"><tspan
         id="tspan3145">7:10</tspan></text>
    <text
       transform="rotate(180,16.635673,287.39997)"
       style="font-size:9px"
       id="text3151"><tspan
         id="tspan3149">9.:4</tspan></text>
    <text
       transform="translate(33.271332,198.48155)"
       style="font-size:9px"
       id="text3155"><tspan
         id="tspan3153">14:4</tspan></text>
    <text
       transform="rotate(-43.931618,262.31928,18.5393)"
       style="font-size:9px"
       id="text3159"><tspan
         id="tspan3157">14:5</tspan></text>
    <text
       transform="rotate(90,-17.964231,232.15456)"
       style="font-size:9px"
       id="text3163"><tspan
         id="tspan3161">16:4</tspan></text>
  </g>
  <g
     id="g4370"
     transform="translate(-3.8763336,-10.699589)">
    <text
       style="font-size:10px"
       id="text3923"
       x="75.773582"
       y="133.86214"><tspan
         id="tspan3921">[11] I 11</tspan></text>
    <path
       class="sticker"
       d="m 127,35.696561 10,0.157059 -2e-5,35.100162 -9.99999,0.157118 z m -110.000006,59.78793 -9.999998,-0.157059 8e-6,-24.059474 9.999998,-0.157058 z m 109.999996,0 9.99999,0.157117 v 62.382342 l -9.99999,0.15712 z M 17.000009,190.2396 l -9.999998,-0.15708 -1.5e-5,-31.74437 9.999998,-0.15708 z m -1.5e-5,-32.05853 -9.999998,-0.15712 V 95.641608 l 9.999998,-0.157117 z M 126.99999,71.1109 l 9.99999,0.157058 v 24.059474 l -9.99999,0.157059 z m 0,87.07017 9.99999,0.15705 3e-5,31.74437 -9.99999,0.15711 z m -27.705189,32.05853 -0.157095,10.00002 -81.980601,-3e-5 -0.157096,-9.99999 z M 117,35.696502 l 0.0786,-4.999995 h 9.84291 L 127,35.696561 Z m -17.705206,0 0.139065,-8.852601 H 116.86093 L 117,35.696502 Z m 27.705226,154.543098 -0.0785,5 h -9.84291 l -0.0786,-5 z M 17.000002,71.1109 7.000004,70.953782 V 35.85362 l 9.999998,-0.157118 z m 100.000008,119.1287 -0.13907,8.8526 H 99.433859 l -0.139058,-8.8526 z M 17.000002,35.696502 17.15709,25.696511 h 81.980608 l 0.157096,9.999991 z"
       id="path3925" />
    <path
       class="convex"
       d="M 99.294786,71.1109 H 17.000002 m 0,0 -8e-6,24.373591 m 0,0 v 62.696579 m 0,0 82.294792,-3e-5 m 8e-6,-122.484538 H 17.000002 m 0,0 V 71.1109 m -8e-6,87.07017 1.5e-5,32.05853 m 0,0 h 82.294792 m -1.5e-5,-32.05856 17.705204,3e-5 m 0,0 h 10 m 0,0 V 95.484491 m -10,-24.373591 H 99.294786 m 27.705204,0 h -10 m 10,24.373591 V 71.1109 M 117,35.696502 H 99.294794 M 126.99999,71.1109 127,35.696561 m 0,0 -10,-5.9e-5 M 99.294801,190.2396 h 17.705209 m 0,0 h 10.00001 m 0,0 -3e-5,-32.05853"
       id="path3927" />
    <path
       class="outer"
       d="m 99.137706,200.23962 -81.980601,-3e-5 -0.157096,-9.99999 -9.999998,-0.15708 -1.5e-5,-31.74437 9.999998,-0.15708 -9.999998,-0.15712 V 95.641608 l 9.999998,-0.157117 -9.999998,-0.157059 8e-6,-24.059474 L 17.000002,71.1109 7.000004,70.953782 V 35.85362 l 9.999998,-0.157118 0.157088,-9.999991 h 81.980608 l 0.157096,9.999991 0.139065,-8.852601 H 116.86093 L 117,35.696502 l 0.0786,-4.999995 h 9.84291 l 0.0785,5.000054 10,0.157059 -2e-5,35.100162 L 127,71.1109 l 9.99999,0.157058 V 95.327432 L 127,95.484491 l 9.99999,0.157117 V 158.02395 L 127,158.18107 l 9.99999,0.15705 3e-5,31.74437 -9.99999,0.15711 -0.0785,5 h -9.84291 l -0.0786,-5 -0.13907,8.8526 H 99.433859 l -0.139058,-8.8526 z"
       id="path3929" />
    <g
       id="g3937">
      <path
         transform="matrix(-3e-6,10,-10,-3e-6,126.99999,53.403731)"
         class="arrow"
         d="M 0,0 1,1 0,0.25 -1,1 Z"
         id="path3931" />
      <text
         transform="translate(117.99999,57.403739)"
         style="font-size:10px"
         id="text3935"><tspan
           id="tspan3933">1</tspan></text>
    </g>
    <text
       transform="rotate(90)"
       style="font-size:9px"
       id="text3941"
       x="53.403732"
       y="-128.79999"><tspan
         id="tspan3939">3:1</tspan></text>
    <g
       id="g3949">
      <path
         transform="matrix(-4e-6,-10,10,-4e-6,17.000002,174.2103)"
         class="arrow"
         d="M 0,0 1,1 0,0.25 -1,1 Z"
         id="path3943" />
      <text
         transform="translate(26.000001,178.21031)"
         style="font-size:10px"
         id="text3947"><tspan
           id="tspan3945">2</tspan></text>
    </g>
    <text
       transform="rotate(-90)"
       style="font-size:9px"
       id="text3953"
       x="-174.21031"
       y="15.200001"><tspan
         id="tspan3951">1:2</tspan></text>
    <g
       id="g3961">
      <path
         transform="matrix(8e-6,10,-10,8e-6,127,174.2103)"
         class="arrow"
         d="M 0,0 1,1 0,0.25 -1,1 Z"
         id="path3955" />
      <text
         transform="translate(118.00001,178.21034)"
         style="font-size:10px"
         id="text3959"><tspan
           id="tspan3957">3</tspan></text>
    </g>
    <text
       transform="rotate(90)"
       style="font-size:9px"
       id="text3965"
       x="174.21046"
       y="-128.79999"><tspan
         id="tspan3963">3:3</tspan></text>
    <text
       transform="scale(-1)"
       style="font-size:9px"
       id="text3969"
       x="-58.147404"
       y="-192.0396"><tspan
         id="tspan3967">6.:8</tspan></text>
    <text
       transform="rotate(179.99983)"
       style="font-size:4.5px"
       id="text3977"
       x="-121.99944"
       y="-191.13997"><tspan
         id="tspan3975">6.:9.</tspan></text>
    <g
       id="g3985">
      <path
         transform="matrix(0,-10,10,0,17.000002,53.403731)"
         class="arrow"
         d="M 0,0 1,1 0,0.25 -1,1 Z"
         id="path3979" />
      <text
         transform="translate(26.000001,57.403739)"
         style="font-size:10px"
         id="text3983"><tspan
           id="tspan3981">4</tspan></text>
    </g>
    <text
       transform="rotate(-90)"
       style="font-size:9px"
       id="text3989"
       x="-53.403732"
       y="15.200001"><tspan
         id="tspan3987">1:4</tspan></text>
    <text
       style="font-size:9px"
       id="text3993"
       x="58.1474"
       y="33.8965"><tspan
         id="tspan3991">17:4</tspan></text>
  </g>
</svg>

<?xml version='1.0' encoding='UTF-8' standalone='no'?>
    <svg xmlns='http://www.w3.org/2000/svg' xmlns:xlink='http://www.w3.org/1999/xlink' version='1.1'
    width='300.00mm' height='600.00mm' viewBox='0 0 300.00 600.00'>
<style type="text/css">
    path {
        fill: none;
        stroke-linecap: butt;
        stroke-linejoin: bevel;
        stroke-dasharray: none;
    }
    path.outer {
        stroke: #000000;
        stroke-dasharray: none;
        stroke-dashoffset: 0;
        stroke-width: 0.3;
        stroke-opacity: 1.0;
    }
    path.convex {
        stroke: #000000;
        stroke-dasharray: 0.50,1.00;
        stroke-dashoffset:0;
        stroke-width:0.2;
        stroke-opacity: 1.0
    }
    path.concave {
        stroke: #000000;
        stroke-dasharray: 1.00,0.50,0.20,0.50;
        stroke-dashoffset: 0;
        stroke-width: 0.2;
        stroke-opacity: 1.0
    }
    path.freestyle {
        stroke: #000000;
        stroke-dasharray: none;
        stroke-dashoffset: 0;
        stroke-width: 0.2;
        stroke-opacity: 1.0
    }
    path.outer_background {
        stroke: #ffffff;
        stroke-opacity: 1.0;
        stroke-width: 0.5
    }
    path.inner_background {
        stroke: #ffffff;
        stroke-opacity: 1.0;
        stroke-width: 0.2
    }
    path.sticker {
        fill: #e5e5e5;
        stroke: none;
        fill-opacity: 1.0;
    }
    path.arrow {
        fill: #000000;
    }
    text {
        font-style: normal;
        fill: #000000;
        fill-opacity: 1.0;
        stroke: none;
    }
    text, tspan {
        text-anchor:middle;
    }
    </style>
<g>
<text transform='translate(113.69517911225557 267.4000607803464)' style='font-size:10.00'><tspan>[2] I 2</tspan></text>
<path class='sticker' d=' M 17.000039 572.999950 L 7.000034 572.842862 L 7.000034 532.141740 L 17.000039 531.984652 Z
M 17.000024 209.569926 L 12.355854 209.496970 L 12.355839 200.354542 L 17.000009 200.281556 Z
M 17.000039 531.984652 L 7.000034 531.827564 L 7.000049 505.733068 L 17.000054 505.575980 Z
M 17.000054 505.575980 L 7.000049 505.418892 L 7.000093 290.041144 L 17.000099 289.884056 Z
M 212.390323 177.464242 L 222.390329 177.621330 L 222.390358 200.908060 L 212.390353 201.065178 Z
M 212.390293 573.000009 L 212.233205 583.000000 L 189.115335 583.000000 L 188.958247 573.000009 Z
M 74.040537 572.999979 L 73.883449 583.000000 L 49.699743 583.000000 L 49.542655 572.999979 Z
M 74.040596 102.078940 L 67.986120 94.118531 L 95.586588 72.433646 L 101.888125 80.199893 Z
M 212.390308 102.078910 L 222.390299 102.235998 L 222.390329 177.307154 L 212.390323 177.464242 Z
M 126.261701 573.000009 L 126.104598 583.000000 L 102.045176 583.000000 L 101.888095 572.999979 Z
M 126.261746 80.199893 L 126.418841 70.199902 L 188.801204 70.199902 L 188.958292 80.199893 Z
M 212.390323 289.883996 L 222.390314 290.041084 L 222.390299 500.802453 L 212.390308 500.959541 Z
M 212.390293 526.525701 L 222.390299 526.682789 L 222.390299 572.842921 L 212.390293 573.000009 Z
M 188.958247 573.000009 L 188.801159 583.000000 L 126.418796 583.000000 L 126.261701 573.000009 Z
M 101.888095 572.999979 L 101.731000 583.000000 L 74.197625 583.000000 L 74.040537 572.999979 Z
M 74.040596 176.680560 L 64.040591 176.523502 L 64.040591 102.236028 L 74.040596 102.078940 Z
M 101.888125 80.199893 L 102.045205 70.199902 L 126.104643 70.199902 L 126.261746 80.199893 Z
M 188.958292 80.199893 L 195.897807 72.997983 L 219.100182 94.662542 L 212.390308 102.078910 Z
M 212.390353 201.065178 L 217.034538 201.138134 L 217.034523 210.280593 L 212.390338 210.353549 Z
M 49.542655 572.999979 L 49.385567 583.000000 L 17.157127 583.000000 L 17.000039 572.999950 Z
M 17.000009 200.281556 L 17.157097 190.281565 L 49.385537 190.281535 L 49.542640 200.281556 Z
M 49.542640 200.281556 L 42.717774 192.970867 L 66.989471 169.587876 L 74.040596 176.680560 Z
M 212.390308 500.959541 L 222.390299 501.116629 L 222.390299 526.368613 L 212.390293 526.525701 Z
M 17.000099 289.884056 L 7.000093 289.726968 L 7.000019 209.727014 L 17.000024 209.569926 Z
M 212.390338 210.353549 L 222.390343 210.510637 L 222.390314 289.726908 L 212.390323 289.883996 Z '/>
<path class='outer' d=' M 7.000034 531.827564 L 7.000049 505.733068 L 17.000054 505.575980 L 7.000049 505.418892 L 7.000093 290.041144 L 17.000099 289.884056 L 7.000093 289.726968 L 7.000019 209.727014 L 17.000024 209.569926 L 12.355854 209.496970 L 12.355839 200.354542 L 17.000009 200.281556 L 17.157097 190.281565 L 49.385537 190.281535 L 49.542640 200.281556 L 42.717774 192.970867 L 66.989471 169.587876 L 74.040596 176.680560 L 64.040591 176.523502 L 64.040591 102.236028 L 74.040596 102.078940 L 67.986120 94.118531 L 95.586588 72.433646 L 101.888125 80.199893 L 102.045205 70.199902 L 126.104643 70.199902 L 126.261746 80.199893 L 126.418841 70.199902 L 188.801204 70.199902 L 188.958292 80.199893 L 195.897807 72.997983 L 219.100182 94.662542 L 212.390308 102.078910 L 222.390299 102.235998 L 222.390329 177.307154 L 212.390323 177.464242 L 222.390329 177.621330 L 222.390358 200.908060 L 212.390353 201.065178 L 217.034538 201.138134 L 217.034523 210.280593 L 212.390338 210.353549 L 222.390343 210.510637 L 222.390314 289.726908 L 212.390323 289.883996 L 222.390314 290.041084 L 222.390299 500.802453 L 212.390308 500.959541 L 222.390299 501.116629 L 222.390299 526.368613 L 212.390293 526.525701 L 222.390299 526.682789 L 222.390299 572.842921 L 212.390293 573.000009 L 212.233205 583.000000 L 189.115335 583.000000 L 188.958247 573.000009 L 188.801159 583.000000 L 126.418796 583.000000 L 126.261701 573.000009 L 126.104598 583.000000 L 102.045176 583.000000 L 101.888095 572.999979 L 101.731000 583.000000 L 74.197625 583.000000 L 74.040537 572.999979 L 73.883449 583.000000 L 49.699743 583.000000 L 49.542655 572.999979 L 49.385567 583.000000 L 17.157127 583.000000 L 17.000039 572.999950 L 7.000034 572.842862 L 7.000034 532.141740 L 17.000039 531.984652 Z '/>
<g><path transform='matrix(0.000001 -10.000000 10.000000 0.000001 17.000039 552.492286)' class='arrow' d='M 0 0 L 1 1 L 0 0.25 L -1 1 Z'/><text transform='translate(26.000039 556.492287)' style='font-size:10.00'><tspan>1</tspan></text></g>
<text transform='matrix(0.000000 -1.000000 1.000000 0.000000 15.200038 552.492286)' style='font-size:9.00'><tspan>3:1</tspan></text>
<g><path transform='matrix(-0.000015 -10.000000 10.000000 -0.000015 17.000009 204.925741)' class='arrow' d='M 0 0 L 1 1 L 0 0.25 L -1 1 Z'/><text transform='translate(26.000009 208.925749)' style='font-size:10.00'><tspan>2</tspan></text></g>
<text transform='matrix(-0.000002 -1.000000 1.000000 -0.000002 16.164054 204.925741)' style='font-size:4.18'><tspan>3:2</tspan></text>
<text transform='matrix(-1.000000 -0.000000 0.000000 -1.000000 200.674270 574.800010)' style='font-size:9.00'><tspan>9.:3</tspan></text>
<text transform='matrix(0.786335 -0.617801 0.617801 0.786335 86.852317 89.724000)' style='font-size:9.00'><tspan>10:1</tspan></text>
<text transform='matrix(0.000000 1.000000 -1.000000 0.000000 214.190324 139.771576)' style='font-size:9.00'><tspan>13:2</tspan></text>
<text transform='matrix(-0.000000 1.000000 -1.000000 -0.000000 214.190294 549.762840)' style='font-size:9.00'><tspan>13:3</tspan></text>
<text transform='matrix(-0.000000 -1.000000 1.000000 -0.000000 72.240596 139.379765)' style='font-size:9.00'><tspan>18:2</tspan></text>
<text transform='matrix(0.730914 0.682470 -0.682470 0.730914 201.902752 89.823778)' style='font-size:9.00'><tspan>10:3</tspan></text>
<text transform='matrix(-1.000000 -0.000000 0.000000 -1.000000 33.271347 574.799950)' style='font-size:9.00'><tspan>9.:4</tspan></text>
<text transform='matrix(1.000000 -0.000001 0.000001 1.000000 33.271332 198.481555)' style='font-size:9.00'><tspan>16:4</tspan></text>
<text transform='matrix(0.720168 -0.693799 0.693799 0.720168 60.542782 187.184746)' style='font-size:9.00'><tspan>16:5</tspan></text>
</g>
</svg>
